X: 22341
T: La Vieille Maclotte
R: jig
M: 6/8
K: Bminor
|:A|B2f f2e|d3 efg|fed cfe|dcd B2A|
B2f f2e|d3 efg|fed cBA|B3 B2:|
|:c|d2c B2A|BAB F2c|d2c B2A|B3B2f|
a2g f2e|d3 efg|fed cBA|B3 B2:|

